X:1
T:3 Browning Songs, Op. 44
T:The Year's at the Spring
T:Browning Society of Boston 
T:3 Browning Songs, Op. 44
T:Amy Marcy Beach
T:3. I Send My Heart up to Thee!
T:Robert Browning
T:Creative Commons copyright waiver (CC0 1.0 Universal)
T:Creative Commons copyright waiver (CC0 1.0 Universal)
T:Creative Commons copyright waiver (CC0 1.0 Universal)
T:Creative Commons copyright waiver (CC0 1.0 Universal)
T:Creative Commons copyright waiver (CC0 1.0 Universal)
C:Amy Marcy Beach
Z:Creative Commons copyright waiver (CC0 1.0 Universal)
%%score 1 ( 2 3 ) { ( 4 6 ) | 5 }
L:1/8
Q:1/4=92
M:9/8
K:Db
V:1 treble nm="Voice"
V:2 treble nm="Voice"
V:3 treble 
V:4 treble nm="Piano"
V:6 treble 
V:5 bass 
V:1
"^Andante con affetto." z9 | z9 | z9 | z9 | z9 | z9 | z9 | z9 | z9 ||[K:E] z9 | z9 | z9 | z9 | z9 | %14
w: ||||||||||||||
 z9 ||[K:Db] z9 | z9 | z9 | z9 |[Q:1/4=90] z9 | z9 ||[K:E][Q:1/4=90]"^.5" z9 | z9 |[Q:1/4=91] z9 | %24
w: ||||||||||
 z9[Q:1/4=92] | z9 ||[K:Db][Q:1/4=90] z9[Q:1/4=88][Q:1/4=80] |[Q:1/4=92] z9 | z9 | z9 | z9 | %31
w: |||||||
[Q:1/4=94] z9 |[Q:1/4=96] z9 |[Q:1/4=98] z9 | %34
w: |||
"^OSSIA"{x-} f z"^ossia entered by mike320  (the ossia part is muted in the Mixer)" =A (A3 B) z e | %35
w: ⸏⸏⸏ to thee _ my|
 g6- g3- | g6- g3- | g x | z7 |[Q:1/4=94] z9[Q:1/4=90][Q:1/4=84] |[Q:1/4=92] z9 |[Q:1/4=91] z9 | %42
w: heart _|_ _||||||
[Q:1/4=90] z9 |[Q:1/4=89] z9[Q:1/4=92] | z9 | z9[Q:1/4=88] | z9[Q:1/4=84] | z9[Q:1/4=80] | z9 |] %49
w: |||||||
V:2
 z9 | z2 z z2!p! F A2 c | (e3- e2 d) (cB) F | A3- A2 z!<(! B2 c | f3-!<)! f2 e!>(! (cd) F!>)! | %5
w: |I send my|heart _ _ up * to|thee, _ all my|heart _ In this * my|
!>(! c3!>)! B2 z z!mf! c d | g3 (2:3:2e c (Bc) d |!>(! e6!>)! (EF) G |!p!!>(! d6!>)!!pp! =G3 || %9
w: sing- ing. For the|stars help me, and * the|sea, and * the|sea bears|
[K:E] G3- G z z z2 z | z2 z z2"^cresc." G B2 d | (f3- f2 e) (dc) G | B3- B z z!<(! c2 d!<)! | %13
w: part; _|I send my|heart _ _ up * to|thee, _ all my|
!f! g3- g2 f (de) G | d3 c z z z =c _d ||[K:Db] (e3 a3- a) z e | %16
w: heart _ In this * my|sing- ing, For the|stars _ _ the|
"^dim." f3 (2:3:2c d!>(! (F=G) A!>)! |!pp! d6 =G3 | A6- A z z | (2:3:2z"^dolce" _G (2:3:2A B d2 B | %20
w: stars help me, and * the|sea bears|part; _|The ve- ry night is|
 A3 G2 z z2 z ||[K:E]!pp! c3 (2:3:2E E (2:3:2F G |!<(! A6-!<)! A z z | %23
w: cling- ing|Clo- ser to Ven- ice’|streets _|
 (2:3:2z"^cresc." A (2:3:2B c e2 c | B3 A2 z!<(! B2 c | f6!<)! _g3 || %26
w: to leave one space A-|bove me, whence thy|face May|
[K:Db] (2:3:2f"^molto rit." e (2:3:2c B (d!breath!c) A | a6- a3- | a6- a2 z | %29
w: light my joy- ous heart * to|thee, _|_ _|
 (2:3:2z g"^cresc." f2 e (cd) =A | (c3 B) z z z2 z |"^accelerando e sempre cresc." z2 d d3- d2 d | %32
w: to thee its dwell- * ing|place, _|thy face _ May|
 d3- d2 c (Bc) d | f6- f3- | f z!f! f g3- g z!ff! g |!<(! b6- b3-!<)! |!>(! b6-!>)!!>(! b3- | %37
w: light _ my joy- * ous|heart _|_ to thee, _ my|heart _|_ _|
 b!>)! z | z z2"^appassionato"!f! g (fe) B |!<(! x6-!<)!"^rit."!>(! f2 e!>)! | %40
w: |to thee, * its|dwell- * ing|
"^Tempo I."!mf! d3- d z z z2 z | z9 |"^sempre più tranquillo" z9 | z2 z z2!pp! A B2 c | %44
w: place. _|||I send my|
 (e3- e2 d) (cB) F | A3- A z z"^rall." B2 A | F3- F z B A2"^più   rit." F |!>(! E6 D2!>)! z | %48
w: heart _ _ up * to|thee, _ all my|heart _ In this my|sing- ing,|
 !fermata!z9 |] %49
w: |
V:3
 x9 | x9 | x9 | x9 | x9 | x9 | x9 | x9 | x9 ||[K:E] x9 | x9 | x9 | x9 | x9 | x9 ||[K:Db] x9 | x9 | %17
 x9 | x9 | x9 | x9 ||[K:E] x9 | x9 | x9 | x9 | x9 ||[K:Db] x9 | A6- A3- | A6- A2 x | x9 | x9 | x9 | %32
 x9 | x9 | x9 | x9 | x9 | x2 | x7 | x9 | x9 | x9 | x9 | x9 | x9 | x9 | x8 !stemless!f | %47
 !stemless!e6 !stemless!d2 x | x9 |] %49
V:4
!pp!"^tranquillo" x3 x3 [fd'f']3 | x3 x3 [fd'f']3 | x3 x3 [fd'f']3 | x3 x3 [gc'g']3 | %4
!<(! x3 x3!<)! [f=af']3 |!>(! x3 x3!>)! [_f=g_f']3 |!<(! x3!<)! x3 [e_ge']3 | %7
!>(! x3 x3!>)! [ege']3 |!pp! x3 x3 x3 || %9
[K:E]!mp! !arpeggio![gbe'g'] z z z2"_dolce marc."!mp! ([Gg] [Bb]2 [dd'] | %10
"^Replaced missing ties" ([fgbf']3-) [fgbf']2 [ee'] [dd'][cc'][Gg]) | %11
 [Gc-f-g-]3 [cfg]2 e"_cresc." [dg]cg | (([AB-d-a]3 [GBdg]3)) [^^FB^^f]3 | %13
!mf! [G^Bg]/ x/ x x x2 x [g^bg']3 | [=g_b=g'] x x x2 x x2 x ||[K:Db] [ac'a'] x x x2 x z2 z | %16
"_dim."[I:staff +1] (E,,/B,,/F,/[I:staff -1]A,/D/F/ A/[I:staff +1]E,/B,/D/[I:staff -1]F/d/- [Fdf]3) | %17
!pp![I:staff +1] (E,,/B,,/_F,/[I:staff -1]A,/B,/D/ A)(_FA) (c2 =G) | %18
 [CA] x x c/ x/ x x [ae'a']2 z |!pp! [D_GB]6- [DGB]3- | [DGB] z z z/ (D/E/D/E/D/ E/D/E/D/G/__B/) || %21
[K:E] [Ec]/ x/ x x x2 x [Ac]3 | %22
[I:staff +1] (F,,/D,/A,/[I:staff -1]C/D/A/ c/[I:staff +1]F,/C/D/A/!<(![I:staff -1]c/-) (2:3:2[cac'][dd']!<)! | %23
 [eac'e']/ x/ x"^cresc." x x2 x [eae']3 | x3 x3 z ([ee'][^e^e'] | %25
 [fac'f']/) x/ x x x2 x !tenuto![Aa]!tenuto![_d_d']!tenuto![_g_g'] || %26
[K:Db]"_molto rit." (2:3:2[fac'f']!>(![ee'] (2:3:2[cc'][Bb]!>)!"_colla voce"!pp! ([dd'][cc'])[ff'] | %27
"_dolcissimo" ([eae']3- [eae']2 [dd'] [cfc'][Bb][Ff]) | %28
 ([A-c-fa-]3 [Acea]3)!<(! ([Bab]2 [cc'])!<)! | %29
"_cresc." (2:3:2([f=af'][gg']) ([ff']2 [ee']) ([cc'][dd'])[Ff] | %30
 (([c_fc']3 [Bb]))(cB)!>(! [=Gd][Gc][GB]!>)! | %31
!p!"^accelerando" [=G=A]2 (=G,/^C/ G2)"_cresc." (G/^c/) [CG][C^F][CG] | %32
 [_D_A][D=G][DA] [D=A][DA][DA] [DB][DB][DB] | %33
 [=B,F=B][B,FB][B,FB] [CFc][CFc][CFc] [=D=A=d][DAd][DAd] | %34
!f! [E=Ae][EAe][EAe]!<(! [GAeg][GAeg][GAeg] [GBeg][FBef][GBeg]!<)! | %35
!ff! [Bdgb][DBd][DBd]"_appassionata" [GBdg][Bb][dd']!8va(! [gbd'g'][ff'][gg'] | %36
 !>![bd'b']3 !>![gbg']2!>(! !>![ff'] ([ee'][dd'])!8va)![Gg]!>)! |!ff!!>(! ([cegc']2 | %38
 [Bb]) ([Aa][Gg])[Dd] ([FBf][Ee])[DGB]!>)! | %39
!f! [CGAc]!>(!C/G/A/c/"_rit."[I:staff +1] (A,,/G,/C/[I:staff -1]A/c/a/)!>)! [ac'a']3 | %40
!f!"^Tempo I." z2 ([Aa] [eae']2!>(! [dd'] [cfc'][Bb][Ff])!>)! | %41
"^sempre dim. e più tranquillo" ([Ada]2 [Gg] [FBf][Ee]B) [DBd]3 | %42
 [^F=A^f][=E=G=e][EG]- [EG]!mp! [^CG]2- [CG][CG][CG] | =A,!>(![=C_G][CG] B, G2- G [CG]2!>)! | %44
!pp! x6 [df]3 | x6"^rall." [df]3 | x6"^più rit." [FA]3- | %47
 [FA]!ppp!!<(![I:staff +1](D,,A,, F,[I:staff -1]A,F-!<)! [FA])(A,-[A,F]-) | !fermata![A,F]6 z2 z |] %49
V:5
!<(!!ped! (D,,/A,,/F,/[I:staff -1]A,/B,/D/!<)!!>(! F[I:staff +1]A,F) A3!ped-up!!>)! | %1
!<(!!ped! (D,,/A,,/F,/[I:staff -1]A,/B,/D/!<)!!>(! F[I:staff +1]A,F) A3!ped-up!!>)! | %2
!<(!!ped! (D,,/A,,/F,/[I:staff -1]A,/B,/D/!<)!!>(! F[I:staff +1]A,F) A3!ped-up!!>)! | %3
!<(!!ped! (D,,/A,,/G,/[I:staff -1]A,/B,/D/!<)!!>(! F[I:staff +1][G,C]E) A3!ped-up!!>)! | %4
"_sempre con Pedale"!ped! (D,,/=A,,/G,/[I:staff -1]=A,/C/E/ F[I:staff +1]F,E) =A3!ped-up! | %5
!ped! (D,,/B,,/_F,/[I:staff -1]=G,/B,/D/ _F[I:staff +1]=G,_F) B3!ped-up! | %6
!ped! (D,,/B,,/E,/[I:staff -1]_G,/B,/D/ E[I:staff +1]G,E) B3!ped-up! | %7
!ped! (D,,/__B,,/E,/[I:staff -1]G,/D/E/ G[I:staff +1]G,D) __B3!ped-up! | %8
!ped!!<(! (^C,,/=A,,/=E,/[I:staff -1]=G,/^C/=G/)[I:staff +1] (^C,/=A,/=E/[I:staff -1]G/^c/=g/)[I:staff +1][K:treble] (^C/=A/=e/[I:staff -1]g/^c'/=g'/)!ped-up!!<)! || %9
[K:E][I:staff +1][K:bass]!ped! (E,,/B,,/E,/[I:staff -1]G,/B,/E/ G)[I:staff +1](B,E) G3!ped-up! | %10
!ped! (E,,/B,,/E,/G,/B,/E/ G)(B,G) [B,EG]3!ped-up! | %11
!ped! (E,,/B,,/E,/G,/B,/E/)[I:staff -1] G[I:staff +1](G,E) [G,EG]3!ped-up! | %12
!ped! E,,(B,,/F,/A,/D/) z!ped-up!!ped! ((B,,A, D3))!ped-up! | %13
!ped! (E,,/^B,,/E,/[I:staff -1]G,/^B,/E/ G[I:staff +1]G,F) ^B3!ped-up! | %14
!ped! (E,,/_B,,/E,/[I:staff -1]=G,/_B,/=G/)[I:staff +1] (E,/_B,/_D/[I:staff -1]G/_B/=g/)[I:staff +1][K:treble] (E/_B/_d/[I:staff -1]g/_b/_g'/)!ped-up! || %15
[K:Db][I:staff +1][K:bass]!ped! E,,/E,/[I:staff -1]C/E/A/c/[I:staff +1] E,/C/A/[I:staff -1]c/e/a/ c'3!ped-up! | %16
!ped![I:staff +1] x6 z2 z!ped-up! |!ped! x3 z [E,A,]!ped-up!D- [E,D]2 E, | %18
!ped! (A,,/E,/C/[I:staff -1]E/F/A/ c/)"^m.s."(F/A/c/e/f/) [ce]2[I:staff +1] z!ped-up! | %19
 [A,,E,]6- [A,,E,]3- |!ped! [A,,E,](A,,E, B,3!ped-up! __B,3) || %21
[K:E]!ped! (G,,/E,/A,/[I:staff -1]C/E/F/ E[I:staff +1]E,C) z2 z!ped-up! |!ped! x3 x3 z2!ped-up! z | %23
"_sempre con Pedale"!ped! (E,,/C,/A,/[I:staff -1]E/A/c/ e)[I:staff +1](E,C A3)!ped-up! | %24
!ped! (C,,/C,/[I:staff -1]A,/E/=G/A/)[I:staff +1] (C,/A,/[I:staff -1]E/G/A/e/)[I:staff +1] [A,=G]3!ped-up! | %25
!ped! (C,,/C,/[I:staff -1]A,/C/F/A/)[I:staff +1] ([C,A,]/C/[I:staff -1]F/A/c/f/)!ped-up![I:staff +1] [CF]3 || %26
[K:Db]!ped! (D,,/A,,/E,/G,/!>(!A,/C/) (2:3:2E[EG] [A,EG]2!>)! [A,CGA]!ped-up! | %27
!ped! (D,,/A,,/D,/F,/A,/D/ F)(A,F- [A,DF]2) z!ped-up! | %28
!ped! D,,(A,,/G,/A,/C/) z ([A,,G,]C)!ped-up! z ([EG]A,) | %29
!ped! (4:6:4(D,,/=A,,/E,/F,/ C)([F,=A,]G)!ped-up! ([F,-A,-F]2 [F,A,E]) | %30
!ped! (D,,/B,,/_F,/=G,/B,/D/ _F) z [F,B,D]!ped-up! [F,B,D][F,B,D][F,B,D] | %31
!ped! [=E,=A,^C](=E,,/=A,,/E,) z/ (E,/A,/=E/)!ped-up! z [E,A,][E,A,][E,A,] | %32
 [F,_A,][F,=G,][F,A,] [F,=A,][F,A,][F,A,] [F,B,][F,B,][F,B,] | %33
 [^G,,F,^G,][G,,F,G,][G,,F,G,] [=A,,F,=A,][A,,F,A,][A,,F,A,] [=B,,F,=B,][B,,F,B,][B,,F,B,] | %34
 [C,F,C][C,F,C][C,F,C] [_C,_G,_C][C,G,C][C,G,C] [B,,B,][G,,G,][E,,E,] | %35
!ped! [A,,,A,,][E,B,][E,B,] [E,B,D]3[K:treble] [DEGB]3 | !>![EGBd]3!ped-up! (!>![GB]2 F) (ED)G, | %37
 ([CEG]2 | B,)[K:bass] (A,G,)D, ([F,G,B,]E,)[E,B,] | %39
!ped! A,,,/A,,/ z z x3[K:treble] !arpeggio![A,Gc]3!ped-up! | %40
[K:bass]!mf!!<(!!ped! (D,,/A,,/D,/F,/A,/D/!<)! F)(A,F) [A,DF]3!ped-up! | %41
!ped! (D,,/B,,/D,/G,/B,/D/) [G,B,]3!ped-up! (A,G,D,) | %42
!<(!!ped! (^C,,/=A,,/^C,/=E,/=A,)!<)!!mf! (=B,!ped-up!A,E,) (B,2 A,) | %43
!mp!!ped! (_D,,/_A,,/_E,/A,,/E,-) E,3-!ped-up! E,(D,,A,,) | %44
!<(!!ped! (D,,/A,,/D,/[I:staff -1]F,/A,/D/!<)!!>(! F[I:staff +1]A,F) z2 z!>)! | %45
!<(! (D,,/A,,/F,/[I:staff -1]A,/B,/D/!<)!!>(! F[I:staff +1]A,F) z2 z!>)! | %46
!<(! (D,,/A,,/F,/[I:staff -1]A,/B,/D/!<)!!>(! F[I:staff +1]A,D) z2 z!>)! | z x2 x3 z2 z | %48
 !fermata![D,,A,,]6 z2!ped-up! z |] %49
V:6
 x9 | x9 | x9 | x9 | x9 | x9 | x9 | x9 | x9 ||[K:E] x9 | x9 | x9 | x9 | x9 | x9 ||[K:Db] x9 | x9 | %17
 x6 [_F=G]ED | x9 | x9 | x9 ||[K:E] x9 | x9 | x9 | x9 | x9 ||[K:Db] x9 | x9 | x9 | x9 | x9 | x9 | %32
 x9 | x9 | x9 | x6!8va(! x3 | x8!8va)! x | x2 | x7 | x9 | x9 | x9 | x9 | =A,3 (B,2 C) (B,2 _A,) | %44
 x9 | x9 | x9 | x9 | x9 |] %49

